dist/styles/ag-theme-alpine/icons/desc.svg

<!-- Generated by IcoMoon.io -->
<svg version="1.1" xmlns="http://www.w3.org/2000/svg" width="32" height="32" viewBox="0 0 32 32">
<title>desc</title>
<path d="M26.667 16l-1.88-1.88-7.453 7.44v-16.227h-2.667v16.227l-7.44-7.453-1.893 1.893 10.667 10.667 10.667-10.667z"></path>
</svg>

<?xml version="1.0" encoding="UTF-8" standalone="no"?>
<!DOCTYPE svg PUBLIC "-//W3C//DTD SVG 1.1//EN" "http://www.w3.org/Graphics/SVG/1.1/DTD/svg11.dtd">
<svg width="100%" height="100%" viewBox="0 0 32 32" version="1.1" xmlns="http://www.w3.org/2000/svg" xmlns:xlink="http://www.w3.org/1999/xlink" xml:space="preserve" xmlns:serif="http://www.serif.com/" style="fill-rule:evenodd;clip-rule:evenodd;stroke-linejoin:round;stroke-miterlimit:2;">
    <path id="desc" d="M26.667,16L24.787,14.12L17.334,21.56L17.334,5.333L14.667,5.333L14.667,21.56L7.227,14.107L5.334,16L16.001,26.667L26.668,16L26.667,16Z" style="fill-rule:nonzero;"/>
</svg>
